X:7084
T:the Milk Maids
O:england
R:Reel
M:C|
A:Westmorland
N:P15 1/2
K:G
B|A/2A/2A BG cABG|AD D/2D/2D ^FGAF|\
G/2G/2G BG cABG|Agdg BGG2:|
|:g|dgBg A/2A/2A a2|dgdg dBdg|\
a/2g/2f/2e/2 gB A/2A/2A a2|egdg BGG2:|


